X:1
T:Circumdederunt me
T:Circumdederunt me
T:Giovanni Girolamo Kapsperger
T:Source : Libro primo di mottetti passeggiati a une voce---Roma---1612. Racolta del Sig.Francesco de Nobili Editor : André Vierendeels (23/10/15).
T:Notes : Original clefs : C3, F4 Note values have been halved in 3-beat measures
C:Giovanni Girolamo Kapsperger
%%score 1 2
L:1/8
Q:1/4=75
M:4/4
K:F
V:1 treble-8 nm="Tenor" snm="T"
V:2 bass nm="BC" snm="BC"
V:1
 G4 G2 G2 | G6 G2 | G6 G2 | c8- | c4 ^F4 | G8- | G2 A2 ^F4 | d4 d2 d2 | d4 c/B/A/G/ A/F/G/A/ | %9
w: Cir- cum- de-|de- runt|me do-|lo-|* ris|mor-|* * tis,|cir- cum- de-|de- * * * * * * * *|
 D3 E/F/ G/A/B/c/ d2- | d2 c2 A4 | D>E F>G F>G A>B | A>G A>B c4 | ^c4 d4 | A6 GF | G8- | G4 E4 | %17
w: |* runt me|do- * * * * * * *|* * * * lo-|* res|mor- * *||* tis,|
 c6 B2 | A6 A2 | A4 G4 | AGAF G4 | F8 | c/B/c/d/ c4 B/A/B/G/ | A6 A2 | A4 C4 | %25
w: et pe-|ri- cu-|la in-|fer- * * * *|ni,|et _ _ _ pe- * * * *|ri- cu-|la in|
 D/E/F/C/ D/E/F/G/ A/B/c/G/ A/B/c- | c2 B/A/G/F/ G4 | F8 | A4 G/A/B/A/ G/F/E/D/ | %29
w: fer- * * * * * * * * * * * * * *||ni|in- ve- * * * * * * *|
 C/A,/B,/C/ D/E/F/G/ AD>EF | E/E/4E/4D ^C2 D4- | D4 ^C4 | D8 | d4- dddd | d4- dc/B/ A/G/A | %35
w: |* * * * * ne-|* runt|me,|tri- * bu- la- ti-|o- * * * * * *|
 D4 z D/E/ F/G/A/B/4c/4 | d4 _e4 | ^G2 A4 G2 | A6 B2 | cdeD EFGA | B3 c/B/ A2 G/F/G/D/ | E8 | D8 | %43
w: nem et _ _ _ _ _ _|_ do-|lo- * *|rem in-|ve- * * * * * * *|||ni,|
[M:3/4] f2 f2 e2 | d3 d c2 | B4 A/B/c/B/ |[M:4/4] G8 | F8 |[M:3/4] c2 c2 d2 | _e3 e e2 | %50
w: et no- men|Do- mi- ni|in- vo- * * *|ca-|vi,|et no- men|Do- mi- ni|
 _e4 f/g/a/g/ |[M:4/4] d8 | c8 |[M:3/4] _e2 d2 c2 | d3 c B2 |[M:4/4] c8 | %56
w: in- vo- * * *|ca-|vi,|et no- men|Do- mi- ni|in-|
 d/e/f/e/ d/e/f/e/ d/c/B/A/ G/F/E/F/ | G/A/B/c/ d/c/d/B/ c/B/c/A/ B/A/B/G/ | %58
w: vo- * * * * * * * * * * * * * * *||
 A/B/c/F/ G/A/B/c/ d/B/c/d/ _e/4d/4c/4B/4A/G/ | A8 | !fermata!G8 |] %61
w: |ca-|vi.|
V:2
 G,8- | G,8 | G,8 | _E,8 | D,8 | B,,4 A,,2 G,,2 | D,8 | D,8- | D,8 | D,8 | _E,4 D,4 | D,8- | %12
 D,4 C,2 B,,2 | A,,4 G,,4 | D,2 C,2 B,,4- | B,,4 A,,2 G,,2 | A,,8 | A,,4 E,4 | F,8 | F,4 E,4 | %20
 D,4 C,4 | F,,8 | A,,6 E,2 | F,8 | F,,8 | F,,8 | A,,4 C,4 | F,,8 | F,,4 G,,4 | G,,8- | G,,8 | %31
 A,,8 | D,8 | D,8- | D,8 | D,8 | G,8 | E,2 C,2 =B,,4 | A,,4 G,,4 | G,,8 | G,,4 A,,2 B,,2 | A,,8 | %42
 D,8 |[M:3/4] D,2 D,2 ^C,2 | D,3 D, A,,2 | B,,4 F,,2 |[M:4/4] C,8 | F,,8 |[M:3/4] F,2 _E,2 D,2 | %49
 C,3 C, C,2 | C,4 B,,A,, |[M:4/4] G,,8 | C,8 |[M:3/4] C,2 B,,2 A,,2 | G,,3 G,, G,,2 |[M:4/4] A,,8 | %56
 B,,8- | B,,4 A,,2 G,,2 | F,2 _E,2 D,2 C,2 | D,8 | !fermata!G,,8 |] %61

